X:630
T: Kilfenora Jig "2"
T: Jerry Lynch's
M: 6/8
L: 1/8
R: Jig
K: D
F2A ABA|ABA FED|G2B B2A|B2A Bcd|
F2A ABA|ABA FED|dcB AGF|GFE D3 :|
d2A F2A|DFA d3|dcB AGF|EFG ABc|
d2A F2A|DFA d3|dcB AGF|GFE D3 :|
